icons/svg/blur.svg

<svg xmlns="http://www.w3.org/2000/svg" version="1.1" baseProfile="full" width="24" height="24" viewBox="0 0 24.00 24.00" xml:space="preserve"><path fill="#000" fill-opacity="1" stroke-linejoin="round" d="M14 8.5c-.83 0-1.5.67-1.5 1.5s.67 1.5 1.5 1.5 1.5-.67 1.5-1.5-.67-1.5-1.5-1.5zm0 4c-.83 0-1.5.67-1.5 1.5s.67 1.5 1.5 1.5 1.5-.67 1.5-1.5-.67-1.5-1.5-1.5zM10 17c-.55 0-1 .45-1 1s.45 1 1 1 1-.45 1-1-.45-1-1-1zm0-8.5c-.83 0-1.5.67-1.5 1.5s.67 1.5 1.5 1.5 1.5-.67 1.5-1.5-.67-1.5-1.5-1.5zm4 12c-.28 0-.5.22-.5.5s.22.5.5.5.5-.22.5-.5-.22-.5-.5-.5zm0-3.5c-.55 0-1 .45-1 1s.45 1 1 1 1-.45 1-1-.45-1-1-1zm7-3.5c-.28 0-.5.22-.5.5s.22.5.5.5.5-.22.5-.5-.22-.5-.5-.5zM18 5c-.55 0-1 .45-1 1s.45 1 1 1 1-.45 1-1-.45-1-1-1zm0 4c-.55 0-1 .45-1 1s.45 1 1 1 1-.45 1-1-.45-1-1-1zm0 8c-.55 0-1 .45-1 1s.45 1 1 1 1-.45 1-1-.45-1-1-1zm0-4c-.55 0-1 .45-1 1s.45 1 1 1 1-.45 1-1-.45-1-1-1zm-8-.5c-.83 0-1.5.67-1.5 1.5s.67 1.5 1.5 1.5 1.5-.67 1.5-1.5-.67-1.5-1.5-1.5zM10 7c.55 0 1-.45 1-1s-.45-1-1-1-1 .45-1 1 .45 1 1 1zm0-3.5c.28 0 .5-.22.5-.5s-.22-.5-.5-.5-.5.22-.5.5.22.5.5.5zm0 17c-.28 0-.5.22-.5.5s.22.5.5.5.5-.22.5-.5-.22-.5-.5-.5zm-7-7c-.28 0-.5.22-.5.5s.22.5.5.5.5-.22.5-.5-.22-.5-.5-.5zm11-10c.28 0 .5-.22.5-.5s-.22-.5-.5-.5-.5.22-.5.5.22.5.5.5zM14 7c.55 0 1-.45 1-1s-.45-1-1-1-1 .45-1 1 .45 1 1 1zm7 3.5c.28 0 .5-.22.5-.5s-.22-.5-.5-.5-.5.22-.5.5.22.5.5.5zM6 5c-.55 0-1 .45-1 1s.45 1 1 1 1-.45 1-1-.45-1-1-1zM3 9.5c-.28 0-.5.22-.5.5s.22.5.5.5.5-.22.5-.5-.22-.5-.5-.5zM6 9c-.55 0-1 .45-1 1s.45 1 1 1 1-.45 1-1-.45-1-1-1zm0 8c-.55 0-1 .45-1 1s.45 1 1 1 1-.45 1-1-.45-1-1-1zm0-4c-.55 0-1 .45-1 1s.45 1 1 1 1-.45 1-1-.45-1-1-1z"/></svg>

﻿<?xml version="1.0" encoding="utf-8"?>
<!DOCTYPE svg PUBLIC "-//W3C//DTD SVG 1.1//EN" "http://www.w3.org/Graphics/SVG/1.1/DTD/svg11.dtd">
<svg xmlns="http://www.w3.org/2000/svg" xmlns:xlink="http://www.w3.org/1999/xlink" version="1.1" baseProfile="full" width="24" height="24" viewBox="0 0 24.00 24.00" enable-background="new 0 0 24.00 24.00" xml:space="preserve">
	<path fill="#000000" fill-opacity="1" stroke-linejoin="round" d="M 14,8.5C 13.17,8.5 12.5,9.17 12.5,10C 12.5,10.83 13.17,11.5 14,11.5C 14.83,11.5 15.5,10.83 15.5,10C 15.5,9.17 14.83,8.5 14,8.5 Z M 14,12.5C 13.17,12.5 12.5,13.17 12.5,14C 12.5,14.83 13.17,15.5 14,15.5C 14.83,15.5 15.5,14.83 15.5,14C 15.5,13.17 14.83,12.5 14,12.5 Z M 10,17C 9.45,17 9,17.45 9,18C 9,18.55 9.45,19 10,19C 10.55,19 11,18.55 11,18C 11,17.45 10.55,17 10,17 Z M 10,8.5C 9.17,8.5 8.5,9.17 8.5,10C 8.5,10.83 9.17,11.5 10,11.5C 10.83,11.5 11.5,10.83 11.5,10C 11.5,9.17 10.83,8.5 10,8.5 Z M 14,20.5C 13.72,20.5 13.5,20.72 13.5,21C 13.5,21.28 13.72,21.5 14,21.5C 14.28,21.5 14.5,21.28 14.5,21C 14.5,20.72 14.28,20.5 14,20.5 Z M 14,17C 13.45,17 13,17.45 13,18C 13,18.55 13.45,19 14,19C 14.55,19 15,18.55 15,18C 15,17.45 14.55,17 14,17 Z M 21,13.5C 20.72,13.5 20.5,13.72 20.5,14C 20.5,14.28 20.72,14.5 21,14.5C 21.28,14.5 21.5,14.28 21.5,14C 21.5,13.72 21.28,13.5 21,13.5 Z M 18,5C 17.45,5 17,5.45 17,6C 17,6.55 17.45,7 18,7C 18.55,7 19,6.55 19,6C 19,5.45 18.55,5 18,5 Z M 18,9C 17.45,9 17,9.45 17,10C 17,10.55 17.45,11 18,11C 18.55,11 19,10.55 19,10C 19,9.45 18.55,9 18,9 Z M 18,17C 17.45,17 17,17.45 17,18C 17,18.55 17.45,19 18,19C 18.55,19 19,18.55 19,18C 19,17.45 18.55,17 18,17 Z M 18,13C 17.45,13 17,13.45 17,14C 17,14.55 17.45,15 18,15C 18.55,15 19,14.55 19,14C 19,13.45 18.55,13 18,13 Z M 10,12.5C 9.17,12.5 8.5,13.17 8.5,14C 8.5,14.83 9.17,15.5 10,15.5C 10.83,15.5 11.5,14.83 11.5,14C 11.5,13.17 10.83,12.5 10,12.5 Z M 10,7C 10.55,7 11,6.55 11,6C 11,5.45 10.55,5 10,5C 9.45,5 9,5.45 9,6C 9,6.55 9.45,7 10,7 Z M 10,3.5C 10.28,3.5 10.5,3.28 10.5,3C 10.5,2.72 10.28,2.5 10,2.5C 9.72,2.5 9.5,2.72 9.5,3C 9.5,3.28 9.72,3.5 10,3.5 Z M 10,20.5C 9.72,20.5 9.5,20.72 9.5,21C 9.5,21.28 9.72,21.5 10,21.5C 10.28,21.5 10.5,21.28 10.5,21C 10.5,20.72 10.28,20.5 10,20.5 Z M 3,13.5C 2.72,13.5 2.5,13.72 2.5,14C 2.5,14.28 2.72,14.5 3,14.5C 3.28,14.5 3.5,14.28 3.5,14C 3.5,13.72 3.28,13.5 3,13.5 Z M 14,3.5C 14.28,3.5 14.5,3.28 14.5,3C 14.5,2.72 14.28,2.5 14,2.5C 13.72,2.5 13.5,2.72 13.5,3C 13.5,3.28 13.72,3.5 14,3.5 Z M 14,7C 14.55,7 15,6.55 15,6C 15,5.45 14.55,5 14,5C 13.45,5 13,5.45 13,6C 13,6.55 13.45,7 14,7 Z M 21,10.5C 21.28,10.5 21.5,10.28 21.5,10C 21.5,9.72 21.28,9.5 21,9.5C 20.72,9.5 20.5,9.72 20.5,10C 20.5,10.28 20.72,10.5 21,10.5 Z M 6,5C 5.45,5 5,5.45 5,6C 5,6.55 5.45,7 6,7C 6.55,7 7,6.55 7,6C 7,5.45 6.55,5 6,5 Z M 3,9.5C 2.72,9.5 2.5,9.72 2.5,10C 2.5,10.28 2.72,10.5 3,10.5C 3.28,10.5 3.5,10.28 3.5,10C 3.5,9.72 3.28,9.5 3,9.5 Z M 6,9C 5.45,9 5,9.45 5,10C 5,10.55 5.45,11 6,11C 6.55,11 7,10.55 7,10C 7,9.45 6.55,9 6,9 Z M 6,17C 5.45,17 5,17.45 5,18C 5,18.55 5.45,19 6,19C 6.55,19 7,18.55 7,18C 7,17.45 6.55,17 6,17 Z M 6,13C 5.45,13 5,13.45 5,14C 5,14.55 5.45,15 6,15C 6.55,15 7,14.55 7,14C 7,13.45 6.55,13 6,13 Z "/>
</svg>
